X:33
T:Tom and Jerry
M:2/4
L:1/16
Z: Jason R. Fruit <Jason R. Fruit@big-mac>
K:A
R: breakdown
AB | [ec][ee]2[ec] [eB]2[ec][eB] | [eA][eB][ec][eA] [eB]2[ec][eB] | Aceg a2ea | fedf edcB |
[eA]2[ec][eA] [eB]2[ec][eB] | [eA][eB][ec][eA] [eB]2[ec][eB] | Aceg afed | [ec][eA][eB][ec] [eA]2 :|
|: CC | [EC]2[AE][AE] [EC]2[AE][AE]  | [FD]2[AF][AF] [FD]2[AF][AF] | [AE]2[AE][AF] [eA]2[eA][eB] | [ec][eA][eB][ec] AFED |
[EC][EC][AE][AE] [EC][EC][AE][AE] | [FD][FD][AF][AF] [FD][FD][AF][AF] | [AE]2[AE][AF] [eA]2[eA][eB] | [ec][eA][eB][ec] [eA]2 :|

